!!!!SEGMENT: mpm331-chinese-japanese.krn
!!!COM: Otto Langey
!!!OTL: Chinese-Japanese
!!!ONB: National
**kern	**dynam	**kern	**dynam	**kern	**dynam
*part3	*part3	*part2	*part2	*part1	*part1
*staff3	*	*staff2	*	*staff1	*
*clefF4	*	*clefG2	*	*clefG2	*
*k[b-e-]	*	*k[b-e-]	*	*k[b-e-]	*
*B-:	*	*B-:	*	*B-:	*
*M4/4	*	*M4/4	*	*M4/4	*
*met(c)	*	*met(c)	*	*met(c)	*
=1	=1	=1	=1	=1	=1
!	!	!LO:TX:a:B:t=Moderato	!	!	!
(2AA 2D	.	[1d	mf <	1r	.
2BB- 2F	.	.	.	.	.
=2	=2	=2	=2	=2	=2
4D) 4G	.	1d][	[ [[	1r	.
(4BB- 4F	.	.	.	.	.
4AA 4D	.	.	>	.	.
4BB- 4F	.	.	] ]]	.	.
=3	=3	=3	=3	=3	=3
4C) 4F	.	4d]	.	1r	.
*clefG2	*	*	*	*	*
.	.	((8qcc#X/ 8qccc#X	.	.	.
(4f#X 4cc	.	2dd)) 2ddd	.	.	.
4fn 4bn	.	.	.	.	.
.	.	((8qcc#/ 8qccc#	.	.	.
4en 4b-X	.	[4dd)) [4ddd	.	.	.
=4	=4	=4	=4	=4	=4
!	!	!LO:TX:b:i:t=dim.	!	!	!
4f) 4a	.	4dd] 4ddd]	.	1r	.
.	.	((8qcc#X/ 8qccc#X	.	.	.
(4d 4g	.	[2.dd)) [2.ddd	.	.	.
4B- 4f	.	.	.	.	.
4A) 4d	.	.	.	.	.
*clefF4	*	*	*	*	*
=5	=5	=5	=5	=5	=5
(4GG 4D	.	2.dd] 2.ddd]	p	1r	.
4BB- 4Fn	.	.	.	.	.
4GG 4D	.	.	.	.	.
4BB-) 4F	.	4r	.	.	.
=6	=6	=6	=6	=6	=6
(4GG 4D	.	1r	.	1r	.
4BB- 4F	.	.	.	.	.
4GG 4D	.	.	.	.	.
4BB-) 4F	.	.	.	.	.
=7!|:	=7!|:	=7!|:	=7!|:	=7!|:	=7!|:
(4GG 4D	.	(4d	p	1r	.
4BB- 4F	.	4f	.	.	.
4GG 4D	.	4g	.	.	.
4BB-) 4F	.	4f	.	.	.
=8	=8	=8	=8	=8	=8
(4GG 4D	.	4d	.	1r	.
4BB- 4F	.	4c)	.	.	.
4GG 4D	.	[2d	.	.	.
4BB-) 4F	.	.	.	.	.
=9	=9	=9	=9	=9	=9
(4GG 4D	.	4d]	.	1r	.
4BB- 4F	.	(8gL	.	.	.
.	.	8fJ	.	.	.
4GG 4D	.	4d)	.	.	.
4BB-) 4F	.	4c	.	.	.
=10	=10	=10	=10	=10	=10
*^	*	*^	*	*	*
4ryy	[1GG [1D	.	4rdd	1d	.	1r	.
.	.	.	(8qcc#X/	.	mf	.	.
(4g 4b-	.	.	2dd)	.	.	.	.
4en 4a	.	.	.	.	.	.	.
.	.	.	(8qcc#/	.	.	.	.
4d 4g	.	.	[4dd)	.	.	.	.
*	*	*	*v	*v	*	*	*
=11	=11	=11	=11	=11	=11	=11
4B- 4f	1GG] 1D]	.	4dd]	>	1r	.
.	.	.	(8qqcc#X/	.	.	.
4A 4d	.	.	2.dd)	.	.	.
4G 4B-	.	.	.	]]	.	.
4F) 4d	.	.	.	.	.	.
*v	*v	*	*	*	*	*
=12	=12	=12	=12	=12	=12
(4GG 4D	.	4r	p	1r	.
4BB- 4F	.	(4d	.	.	.
4GG 4D	.	[2f	.	.	.
4BB-) 4F	.	.	.	.	.
=13	=13	=13	=13	=13	=13
(4GG 4D	.	4f])	.	1r	.
4BB- 4F	.	(8gL	.	.	.
.	.	8fJ	.	.	.
4GG 4D	.	[2d	.	.	.
4BB-) 4F	.	.	.	.	.
=14	=14	=14	=14	=14	=14
(4GG 4D	.	4d])	.	1r	.
4BB- 4F	.	(8gL	.	.	.
.	.	8fJ	.	.	.
4GG 4D	.	8dL	.	.	.
.	.	8c	.	.	.
4BB-) 4F	.	8d	.	.	.
.	.	8fJ	.	.	.
=15	=15	=15	=15	=15	=15
*^	*	*^	*	*	*
4ryy	[1GG [1D	.	4rdd	1d)	.	1r	.
.	.	.	(8qcc#X/	.	mf	.	.
(4g 4b-	.	.	2dd)	.	.	.	.
!	!	!LO:DY:a	!	!	!	!	!
4en 4a	.	.	.	.	>	.	.
.	.	.	(8qcc#/	.	.	.	.
4d 4g	.	.	[4dd)	.	.	.	.
*	*	*	*v	*v	*	*	*
=16	=16	=16	=16	=16	=16	=16
4B- 4f	1GG] 1D]	.	4dd]	.	1r	.
.	.	.	(8qcc#X/	.	.	.
4d 4g	.	.	2.dd)	.	.	.
4B- 4f	.	.	.	.	.	.
4G) 4en	.	.	.	.	.	.
*v	*v	*	*	*	*	*
=17	=17	=17	=17	=17	=17
*	*	*^	*	*	*
(4D 4A	.	(4a	4f	p	1r	.
4F 4c	.	4g)	4c	.	.	.
4D 4A	.	[2a	[2f	.	.	.
4F) 4c	.	.	.	.	.	.
=18	=18	=18	=18	=18	=18	=18
(4D 4A	.	4a]	4f]	.	1r	.
4F 4c	.	(8ddL	4a	.	.	.
.	.	8ccJ	.	.	.	.
4D 4A	.	[2a)	[2f	.	.	.
4F) 4c	.	.	.	.	.	.
=19	=19	=19	=19	=19	=19	=19
(4D 4A	.	4a]	4f]	.	1r	.
4G 4c	.	(4en 4g	4ryy	.	.	.
4D 4A	.	4f 4a	2ryy	.	.	.
4C) 4B-	.	4e) 4cc	.	.	.	.
*	*	*v	*v	*	*	*
=20	=20	=20	=20	=20	=20
(4D 4A	.	1f 1a	.	1r	.
4F 4c	.	.	.	.	.
4D 4A	.	.	.	.	.
4F) 4c	.	.	.	.	.
=21	=21	=21	=21	=21	=21
(4D 4A	.	(4a 4ff	.	1r	.
4G 4d	.	4b- 4dd	.	.	.
4En 4A	.	[2a) [2cc	.	.	.
4F) 4c	.	.	.	.	.
=22	=22	=22	=22	=22	=22
*	*	*^	*	*	*
4En 4A	.	4a] 4cc]	4ryy	.	1r	.
4F 4c	.	(8ddL	4a	.	.	.
.	.	8ccJ	.	.	.	.
4D 4A	.	[2a)	2f	.	.	.
4F 4c	.	.	.	.	.	.
=23	=23	=23	=23	=23	=23	=23
4D 4A	.	4a]	4f	.	1r	.
4F 4c	.	(8ddL	4a	.	.	.
.	.	8ccJ	.	.	.	.
4D 4A	.	4f 4a	2ryy	.	.	.
4G 4B-	.	4en) 4g	.	.	.	.
*	*	*v	*v	*	*	*
=24	=24	=24	=24	=24	=24
4D 4A	.	1f 1a	.	1r	.
4F 4c	.	.	.	.	.
4D 4A	.	.	.	.	.
4F 4c	.	.	.	.	.
=25	=25	=25	=25	=25	=25
*	*	*^	*	*	*
4D 4B-	.	(4ff	4f	mf	1r	.
4G 4d	.	4dd	4b-	.	.	.
4En 4A	.	[2cc	[2a	.	.	.
4F 4c	.	.	.	.	.	.
=26	=26	=26	=26	=26	=26	=26
4En 4A	.	4cc])	4a]	.	1r	.
4F 4c	.	(8ddL	4a	.	.	.
.	.	8ccJ	.	.	.	.
4D 4A	.	[2f) [2a	2ryy	.	.	.
4F 4c	.	.	.	.	.	.
=27	=27	=27	=27	=27	=27	=27
4D 4A	.	4f] 4a]	4ryy	.	1r	.
!	!	!LO:TX:b:i:t=dim.	!	!	!	!
4F 4c	.	(8ddL	4a	.	.	.
.	.	8ccJ	.	.	.	.
4D 4A	.	4f) 4a	2ryy	.	.	.
4C 4B-	.	((4en 4cc	.	.	.	.
*	*	*v	*v	*	*	*
=28	=28	=28	=28	=28	=28
4D 4A	.	[1f)) [1a	>	1r	.
4F 4c	.	.	.	.	.
4D 4A	.	.	.	.	.
4F 4c	.	.	.	.	.
=29	=29	=29	=29	=29	=29
4D 4A	.	1f] 1a]	.	1r	.
4F 4c	.	.	.	.	.
4D 4A	.	.	.	.	.
4F 4c	.	.	]]	.	.
=30:|!	=30:|!	=30:|!	=30:|!	=30:|!	=30:|!
*^	*	*^	*	*	*
4B-	1D	.	(4g 4een	8gL	p	1r	.
.	.	.	.	8enJ	.	.	.
4d	.	.	4a 4ff	8aL	<	.	.
.	.	.	.	8fJ	.	.	.
4B-	.	.	4g 4ee	8gL	.	.	.
.	.	.	.	8eJ	.	.	.
4d	.	.	4b-) 4gg	8b-L	.	.	.
.	.	.	.	8gJ	[	.	.
*clefG2	*	*	*	*	*	*	*
=31	=31	=31	=31	=31	=31	=31	=31
(4en	1d	.	8ddL 8gg 8bb-	4ryy	mf	1r	.
.	.	.	8ddJ 8gg 8bb-	.	.	.	.
4f	.	.	2.gg 2.bb-	[4dd	.	.	.
4e	.	.	.	8ddL]	.	.	.
.	.	.	.	8b-J	.	.	.
4g)	.	.	.	8ddL	.	.	.
.	.	.	.	8b-J	.	.	.
*v	*v	*	*	*	*	*	*
*	*	*v	*v	*	*	*
=32	=32	=32	=32	=32	=32
.	.	(8qgg#X/	p	.	.
8d'L 8f 8a	.	8dd'L) 8ff 8aa	.	1r	.
8d'J 8f 8a	.	8dd'J 8ff 8aa	.	.	.
4d 4en 4g	.	4dd 4een 4ggn	.	.	.
8d'L 8f 8a	.	8dd'L 8ff 8aa	.	.	.
8d'J 8f 8a	.	8dd'J 8ff 8aa	.	.	.
4d 4e 4g	.	4dd 4ee 4gg	.	.	.
=33	=33	=33	=33	=33	=33
8AL 8d 8f	.	8a'L 8dd 8ff	.	1r	.
8AJ 8d 8f	.	8a'J 8dd 8ff	.	.	.
4A 4c#X 4en	.	4a 4cc#X 4een	.	.	.
*clefF4	*	*	*	*	*
8FFL 8F	.	2r	>	.	.
8FFJ 8F	.	.	.	.	.
4EEn 4En	.	.	]]	.	.
=34	=34	=34	=34	=34	=34
*^	*	*^	*	*	*
2.A	4C#X	.	(4een	8aL	p	1r	.
.	.	.	.	8gJ	.	.	.
.	4D	.	4ff	8aL	<	.	.
.	.	.	.	8gJ	.	.	.
.	4C#	.	4ee	8aL	.	.	.
.	.	.	.	8gJ	.	.	.
4c#X	4En	.	4gg)	8b-L	.	.	.
.	.	.	.	8gJ	[[	.	.
=35	=35	=35	=35	=35	=35	=35	=35
(4en	1G	.	8cc#XL 8gg 8bb-	8b-L	mf	1r	.
.	.	.	8cc#J 8gg 8bb-	8b-J	.	.	.
4f	.	.	2.cc# 2.gg 2.bb-	[4b-	.	.	.
4e	.	.	.	8b-L]	.	.	.
.	.	.	.	8b-	.	.	.
4g)	.	.	.	8cc#	.	.	.
.	.	.	.	8b-J	.	.	.
*v	*v	*	*	*	*	*	*
*	*	*v	*v	*	*	*
=36	=36	=36	=36	=36	=36
8A'L 8d 8f	.	8aL 8ff 8aa	p	1r	.
8A'J 8d 8f	.	8aJ 8ff 8aa	.	.	.
4A 4d 4en	.	4g 4een 4gg	.	.	.
8A'L 8d 8f	.	8a'L 8ff 8aa	.	.	.
8A'J 8d 8f	.	8a'J 8ff 8aa	.	.	.
4A 4d 4e	.	4g 4ee 4gg	.	.	.
=37	=37	=37	=37	=37	=37
8A'L 8d 8f	.	8aL 8dd 8ff	.	1r	.
8A'J 8d 8f	.	8aJ 8dd 8ff	.	.	.
4A 4c#X 4en	.	4a 4cc#X 4een	.	.	.
8AA'L 8A	.	2r	.	.	.
8AA'J 8A	.	.	.	.	.
4AA 4A	.	.	.	.	.
*clefG2	*	*	*	*	*
=38	=38	=38	=38	=38	=38
.	.	(8qccc#X/	pp	.	.
*^	*	*^	*	*	*
8aL	2d	.	(8dddL)	2ff	.	1r	.
8dd	.	.	8aa)	.	.	.	.
8a	.	.	8aa'	.	.	.	.
8ddJ	.	.	8aa'J	.	.	.	.
8aL	2d	.	2ccc#Xt	2gg	.	.	.
8een	.	.	.	.	.	.	.
8a	.	.	.	.	.	.	.
8eeJ	.	.	.	.	.	.	.
.	.	.	(16qqbbn/LL	.	.	.	.
.	.	.	16qqccc#/JJ)	.	.	.	.
=39	=39	=39	=39	=39	=39	=39	=39
8aL	2d	.	(8dddL	2ff	.	1r	.
8dd	.	.	8aa)	.	.	.	.
8a	.	.	8aa'	.	.	.	.
8ddJ	.	.	8aa'J	.	.	.	.
8gL	2d	.	2bbnt	2ff	.	.	.
8dd	.	.	.	.	.	.	.
8g	.	.	.	.	.	.	.
8ddJ	.	.	.	.	.	.	.
.	.	.	(16qqaa/LL	.	.	.	.
.	.	.	16qqbbn/JJ)	.	.	.	.
=40	=40	=40	=40	=40	=40	=40	=40
8gL	2cn	.	(8cccL	2een	.	1r	.
8cc	.	.	8gg)	.	.	.	.
8g	.	.	8gg	.	.	.	.
8ccJ	.	.	8ggJ	.	.	.	.
8dL	2G	.	2bb-T	2dd	.	.	.
8b-X	.	.	.	.	.	.	.
8d	.	.	.	.	.	.	.
8b-J	.	.	.	.	.	.	.
*	*	*	*v	*v	*	*	*
.	.	.	(16qqaa/LL	.	.	.
.	.	.	16qqbb-/JJ)	.	.	.
=41	=41	=41	=41	=41	=41	=41
.	.	.	(8qdd/	.	.	.
8fL	2A 2d	.	8aaL)	.	1r	.
8a	.	.	8ff	.	.	.
8f	.	.	8een	.	.	.
8aJ	.	.	8ddJ	.	.	.
8gL	2A 2c#X	.	2eet	.	.	.
8a	.	.	.	.	.	.
8g	.	.	.	.	.	.
8aJ	.	.	.	.	.	.
.	.	.	(16qqdd/LL	.	.	.
.	.	.	16qqee/JJ)	.	.	.
*clefF4	*	*	*	*	*	*
=42	=42	=42	=42	=42	=42	=42
*	*	*	*^	*	*	*
8AL	2D	.	(8ddL	2f	p	1r	.
8d	.	.	8a)	.	.	.	.
8A	.	.	8a	.	.	.	.
8dJ	.	.	8aJ	.	.	.	.
8AL	2D	.	2cc#Xt	2g	.	.	.
8en	.	.	.	.	.	.	.
8A	.	.	.	.	.	.	.
8eJ	.	.	.	.	.	.	.
.	.	.	(16qqbn/LL	.	.	.	.
.	.	.	16qqcc#/JJ)	.	.	.	.
=43	=43	=43	=43	=43	=43	=43	=43
8AL	2D	.	(8ddL	2f	.	1r	.
8d	.	.	8a)	.	.	.	.
8A	.	.	8a'	.	.	.	.
8dJ	.	.	8a'J	.	.	.	.
8GL	2D	.	2bnt	2f	.	.	.
8d	.	.	.	.	.	.	.
8G	.	.	.	.	.	.	.
8dJ	.	.	.	.	.	.	.
.	.	.	(16qqa/LL	.	.	.	.
.	.	.	16qqb/JJ)	.	.	.	.
=44	=44	=44	=44	=44	=44	=44	=44
8GL	2C	.	(8ccL	2en	.	1r	.
8c	.	.	8g)	.	.	.	.
8G	.	.	8g	.	.	.	.
8cJ	.	.	8gJ	.	.	.	.
8DL	2GG	.	2b-T	2d	.	.	.
8B-X	.	.	.	.	.	.	.
8D	.	.	.	.	.	.	.
8B-J	.	.	.	.	.	.	.
*	*	*	*v	*v	*	*	*
.	.	.	(16qqa/LL	.	.	.
.	.	.	16qqb-/JJ)	.	.	.
=45	=45	=45	=45	=45	=45	=45
.	.	.	(8qd/	.	.	.
8FL	2AA	.	(8aL)	.	1r	.
8A	.	.	8f)	.	.	.
8F	.	.	8en	.	.	.
8AJ	.	.	8dJ	.	.	.
8GL	2AA	.	2c#Xt 2e	.	.	.
8A	.	.	.	.	.	.
8G	.	.	.	.	.	.
8AJ	.	.	.	.	.	.
*v	*v	*	*	*	*	*
.	.	(16qqd/LL	.	.	.
.	.	16qqe/JJ)	.	.	.
=46	=46	=46	=46	=46	=46
*	*	*^	*	*	*
(8DDL 8D	.	2F 2A 2d	2ryy	.	1r	.
8AAA) 8AA	.	.	.	.	.	.
8AAA' 8AA	.	.	.	.	.	.
8AAA'J 8AA	.	.	.	.	.	.
(4EEn 4En	.	(8c#XL	2G	.	.	.
.	.	8A)	.	.	.	.
4AAA) 4AA	.	8A'	.	.	.	.
.	.	8A'J	.	.	.	.
=47	=47	=47	=47	=47	=47	=47
(8DDL 8D	.	2F 2A 2d	2ryy	.	1r	.
8AAA) 8AA	.	.	.	.	.	.
8AAA 8AA	.	.	.	.	.	.
8AAAJ 8AA	.	.	.	.	.	.
(4EEn 4E-	.	(8c#XL	2G	.	.	.
.	.	8A)	.	.	.	.
4AAA) 4AA	.	8A	.	.	.	.
.	.	8AJ	.	.	.	.
*	*	*v	*v	*	*	*
=48	=48	=48	=48	=48	=48
!	!	!LO:TX:b:i:t=cresc.	!	!	!
(8DDL 8D	.	2F 2A 2d	.	1r	.
8AAA) 8AA	.	.	.	.	.
8AAA 8AA	.	.	.	.	.
8AAAJ 8AA	.	.	.	.	.
(8FFL 8F	.	2A 2d 2f	.	.	.
8DD) 8D	.	.	.	.	.
8DD 8D	.	.	.	.	.
8DDJ 8D	.	.	.	.	.
=49	=49	=49	=49	=49	=49
(8AAL 8A	.	2d 2f 2a	.	1r	.
8FF) 8F	.	.	.	.	.
!	!	!LO:TX:a:i:t=rit.	!	!	!
8FF 8F	.	.	.	.	.
8FFJ 8F	.	.	.	.	.
(8AAL 8A	.	(8aL	.	.	.
8FF) 8F	.	8f)	.	.	.
8FF 8F	.	8f	.	.	.
8FFJ 8F	.	8fJ	.	.	.
=50	=50	=50	=50	=50	=50
*^	*	*^	*	*	*
!	!	!LO:DY:a	!LO:TX:a:i:t=a tempo	!	!	!	!
1F	(4BB-	f	(4dd	(8dL 8f	.	1r	.
.	.	.	.	8B-J) 8d	.	.	.
.	4FF	.	4ff	8B-L 8d	.	.	.
.	.	.	.	8B-J 8d	.	.	.
.	4BB-	.	4gg	(8dL 8f	.	.	.
.	.	.	.	8B-J) 8d	.	.	.
.	4FF)	.	4ff)	8B-L 8d	.	.	.
.	.	.	.	8B-J 8d	.	.	.
=51	=51	=51	=51	=51	=51	=51	=51
1F	(4BB-	.	(4dd	(8dL 8f	.	1r	.
.	.	.	.	8B-J) 8d	.	.	.
.	4FF	.	4cc)	8B-L 8d	.	.	.
.	.	.	.	8B-J 8d	.	.	.
.	4BB-	.	[2dd	(8dL 8f	.	.	.
.	.	.	.	8B-J) 8d	.	.	.
.	4FF)	.	.	8B-L 8d	.	.	.
.	.	.	.	8B-J 8d	.	.	.
=52	=52	=52	=52	=52	=52	=52	=52
1F	(4BB-	.	4dd]	(8dL 8f	.	1r	.
.	.	.	.	8B-J) 8d	.	.	.
.	4FF	.	(8ggL	8B-L 8d	.	.	.
.	.	.	8ffJ	8B-J 8d	.	.	.
.	4BB-	.	4dd)	(8dL 8f	.	.	.
.	.	.	.	8B-J) 8d	.	.	.
.	4FF)	.	4cc	8B-L 8d	.	.	.
.	.	.	.	8B-J 8d	.	.	.
=53	=53	=53	=53	=53	=53	=53	=53
1F	(4BB-	.	[1dd	(8dL 8f	.	1r	.
.	.	.	.	8B-J) 8d	.	.	.
.	4FF	.	.	8B-L 8d	.	.	.
.	.	.	.	8B-J 8d	.	.	.
.	4BB-	.	.	(8dL 8f	.	.	.
.	.	.	.	8B-J) 8d	.	.	.
.	4FF)	.	.	8B-L 8d	.	.	.
.	.	.	.	8B-J 8d	.	.	.
=54	=54	=54	=54	=54	=54	=54	=54
1F	(4BB-	.	4dd]	(8dL 8f	.	1r	.
.	.	.	.	8B-J) 8d	.	.	.
.	4FF	.	(4dd	8B-L 8d	.	.	.
.	.	.	.	8B-J 8d	.	.	.
.	4BB-	.	[2ff)	(8dL 8f	.	.	.
.	.	.	.	8B-J) 8d	.	.	.
.	4FF)	.	.	8B-L 8d	.	.	.
.	.	.	.	8B-J 8d	.	.	.
=55	=55	=55	=55	=55	=55	=55	=55
1F	(4BB-	.	4ff]	(8dL 8f	.	1r	.
.	.	.	.	8B-J) 8d	.	.	.
.	4FF	.	(8ggL	8B-L 8d	.	.	.
.	.	.	8ffJ	8B-J 8d	.	.	.
.	4BB-	.	[2dd	(8dL 8f	.	.	.
.	.	.	.	8B-J) 8d	.	.	.
.	4FF)	.	.	8B-L 8d	.	.	.
.	.	.	.	8B-J 8d	.	.	.
=56	=56	=56	=56	=56	=56	=56	=56
1F	(4BB-	.	4dd])	(8dL 8f	.	1r	.
.	.	.	.	8B-J) 8d	.	.	.
.	4FF	.	(8ggL	8B-L 8d	.	.	.
.	.	.	8ffJ	8B-J 8d	.	.	.
.	4BB-	.	8ddL	(8dL 8f	.	.	.
.	.	.	8cc	8B-J) 8d	.	.	.
.	4FF)	.	8dd	8B-L 8d	.	.	.
.	.	.	8ffJ)	8B-J 8d	.	.	.
=57	=57	=57	=57	=57	=57	=57	=57
1F	(4BB-	.	1dd	(8dL 8f	.	1r	.
.	.	.	.	8B-J) 8d	.	.	.
.	4FF	.	.	8B-L 8d	.	.	.
.	.	.	.	8B-J 8d	.	.	.
.	4BB-	.	.	(8dL 8f	.	.	.
.	.	.	.	8B-J) 8d	.	.	.
.	4FF)	.	.	8B-L 8d	.	.	.
.	.	.	.	8B-J 8d	.	.	.
*v	*v	*	*	*	*	*	*
*	*	*v	*v	*	*	*
=58	=58	=58	=58	=58	=58
(4D 4A	.	(8ffL 8aa	mf	(4aa	mf
.	.	8aJ) 8ff	.	.	.
4F 4c	.	8ccL 8gg	.	4gg)	.
.	.	8ccJ 8gg	.	.	.
4D 4A	.	(8ffL 8aa	.	[2aa	.
.	.	8aJ) 8ff	.	.	.
4F) 4c	.	8aL 8ff	.	.	.
.	.	8aJ 8ff	.	.	.
=59	=59	=59	=59	=59	=59
(4D 4A	.	(8ffL 8aa	.	4aa]	.
.	.	8aJ) 8ff	.	.	.
4F 4c	.	8aL 8ff	.	(8dddL	.
.	.	8aJ 8ff	.	8cccJ	.
4D 4A	.	(8ffL 8aa	.	[2aa)	.
.	.	8aJ) 8ff	.	.	.
4F) 4c	.	8aL 8ff	.	.	.
.	.	8aJ 8ff	.	.	.
=60	=60	=60	=60	=60	=60
(4D 4A	.	(8ffL 8aa	.	4aa]	.
.	.	8aJ) 8ff	.	.	.
4G 4c	.	8ccL 8gg	.	(4gg	.
.	.	8ccJ 8gg	.	.	.
4D 4A	.	(8ffL 8aa	.	4aa	.
.	.	8aJ) 8ff	.	.	.
4C) 4B-	.	8ccL 8gg	.	4ccc)	.
.	.	8ccJ 8gg	.	.	.
=61	=61	=61	=61	=61	=61
(4D 4A	.	(8ffL 8aa	>	1aa	>]
.	.	8aJ) 8ff	.	.	.
4F 4c	.	8aL 8ff	.	.	.
.	.	8aJ 8ff	.	.	.
4D 4A	.	(8ffL 8aa	.	.	.
.	.	8aJ) 8ff	.	.	.
4F) 4c	.	8aL 8ff	.	.	.
.	.	8aJ 8ff	]]	.	.
=62	=62	=62	=62	=62	=62
(4D 4A	.	((8ffL 8aa	mf	(4fff	mf >
.	.	8ddJ)) 8ff	.	.	.
4G) 4d	.	8ddL [8ff	.	4ddd)	.
.	.	8ddJ 8ff]	.	.	.
(4En 4A	.	(8eenL 8ccc	.	[2ccc	]
.	.	8ccJ) 8aa	.	.	.
4F) 4c	.	8ccL 8aa	.	.	.
.	.	8ccJ 8aa	.	.	.
=63	=63	=63	=63	=63	=63
(4En 4A	.	(8eenL 8ccc	.	4ccc]	.
.	.	8ccJ) 8aa	.	.	.
4F) 4c	.	8ccL 8aa	.	(8dddL	.
.	.	8ccJ 8aa	.	8cccJ	.
(4D 4A	.	(8ffL 8aa	.	[2aa)	.
.	.	8aJ) 8ff	.	.	.
4F) 4c	.	8aL 8ff	.	.	.
.	.	8aJ 8ff	.	.	.
=64	=64	=64	=64	=64	=64
4D 4A	.	(8ffL 8aa	.	4aa]	.
.	.	8aJ) 8ff	.	.	.
!	!	!LO:TX:b:i:t=dim.	!	!LO:TX:b:i:t=dim.	!
4F 4c	.	8aL 8ff	.	(8dddL	.
.	.	8aJ 8ff	.	8cccJ	.
4D 4A	.	(8ffL 8aa	.	4aa	.
.	.	8aJ) 8ff	.	.	.
4G 4B-	.	(8gL 8een	.	4gg)	.
.	.	8b-J) 8gg	.	.	.
=65	=65	=65	=65	=65	=65
4D 4A	.	(8aL 8ff	.	1aa	.
.	.	8ffJ) 8aa	.	.	.
4F 4c	.	(8ffL 8aa	.	.	.
.	.	8aJ) 8ff	.	.	.
4D 4A	.	(8ffL 8aa	.	.	.
.	.	8aJ) 8ff	.	.	.
4F 4c	.	8aL 8ff	.	.	.
.	.	8aJ 8ff	.	.	.
=66	=66	=66	=66	=66	=66
*	*	*^	*	*	*
(4GG 4D	.	4dd	[1b- 1dd	p	1r	.
4BB- 4F	.	4f 4ff	.	.	.	.
4GG 4D	.	4g 4gg	.	.	.	.
4BB-) 4F	.	4f 4ff	.	.	.	.
=67	=67	=67	=67	=67	=67	=67
(4GG 4D	.	4d 4dd	1b-]	.	1r	.
4BB- 4F	.	4c 4cc	.	.	.	.
4GG 4D	.	[2d [2dd	.	.	.	.
4BB-) 4F	.	.	.	.	.	.
*	*	*v	*v	*	*	*
=68	=68	=68	=68	=68	=68
(4GG 4D	.	4d] 4dd]	.	1r	.
4BB- 4F	.	(8gL 8gg	.	.	.
.	.	8fJ 8ff	.	.	.
4GG 4D	.	4d) 4dd	.	.	.
4BB-) 4F	.	4c 4cc	.	.	.
=69	=69	=69	=69	=69	=69
!	!	!LO:TX:b:i:t=dim.	!	!	!
(4GG 4D	.	[1d [1dd	.	1r	.
4BB- 4F	.	.	.	.	.
4GG 4D	.	.	.	.	.
4BB-) 4F	.	.	.	.	.
=70	=70	=70	=70	=70	=70
(4GG 4D	.	4d] 4dd]	.	1r	.
4BB- 4F	.	4c 4cc	.	.	.
4GG 4D	.	[2d [2dd	.	.	.
4BB-) 4F	.	.	.	.	.
=71	=71	=71	=71	=71	=71
(4GG 4D	.	2.d] 2.dd]	.	1r	.
4BB- 4F	.	.	.	.	.
4GG 4D	.	.	.	.	.
!	!	!LO:TX:a:i:t=rit.	!	!	!
4BB-) 4F	.	(4c	pp	.	.
=72	=72	=72	=72	=72	=72
(4GG 4D	.	[1d)	>	1r	.
4BB- 4F	.	.	.	.	.
4GG 4D	.	.	.	.	.
4BB-) 4F	.	.	.	.	.
=73	=73	=73	=73	=73	=73
(4GG 4D	.	2d_	.	1r	.
4BB- 4F	.	.	.	.	.
[4GG [4D	.	4d_	.	.	.
8GG]) 8D]	.	8d]	.	.	.
8r	.	8r	]	.	.
==	==	==	==	==	==
*-	*-	*-	*-	*-	*-
!!!system-decoration: s1[(s2,s3)]
!!!ENC: Yukiko Yoden
!!!END: 2022/03/21